X: 6859
T: Charlie Mulvihill's
R: jig
M: 6/8
K: Dmajor
DFA B2A|BdB BAF|DFA ded|BAF E2 F|
DFA B2A|BdB BAF|d2 f ede|1 fdc dAF:|2 fdc d2 e||
fdB ABd|efe ede|fdB AFA|c/d/ec d2 e|
fdB ABd|efe ede|faf gfe|1 dfe d2 e:|2 dfe dAF||

